X:0364
T:On dit qu-ia quinze ans.
N:On dit qu a quinze ans [index]
M:6/8
L:1/8
Q:3/8=120
I: :: || DC
P:ABA % Aird writes a da capo
Z:Jack Campin * www.campin.me.uk * 2009
K:D
P:A
d2f e2f|({e}d2)e d2c|BAB B2c|d3 A3 |
d2f e2f| {e}d2 e d2c|B2A B2c|d3 d3::
P:B
f2f fef|   g3    g2e|fga agf|f3 e3 |
f2f fef|   g3    g2e|fga agf|f3 e3:|

